X: 21668
T: Kilmovee, The
R: jig
M: 6/8
K: Gmajor
G2G BGB|GAB AGE|DEG Bdg|ege dBA|
~G3 BGB|ded BGE|DEG Bdg|1 edB G3:|2 edB G Bd||
g2B dBG|AGE GED|GBd g2f|eag fdc|
~B3 dBA|GAB AGE|DEG Bdg|1 edB G2d:|2 edB G3||

